assets/images/icon-circle-communicate.svg

<?xml version="1.0" encoding="UTF-8"?>
<svg width="75px" height="75px" viewBox="0 0 75 75" version="1.1" xmlns="http://www.w3.org/2000/svg" xmlns:xlink="http://www.w3.org/1999/xlink">
    <!-- Generator: Sketch 41.2 (35397) - http://www.bohemiancoding.com/sketch -->
    <title>Icon</title>
    <desc>Created with Sketch.</desc>
    <defs></defs>
    <g id="Marketing" stroke="none" stroke-width="1" fill="none" fill-rule="evenodd">
        <g id="Teachers" transform="translate(-300.000000, -1610.000000)">
            <g id="Chat" transform="translate(0.000000, 1235.000000)">
                <g id="Copy" transform="translate(300.000000, 375.000000)">
                    <g id="Icon">
                        <ellipse id="Circle" fill="#88CAA0" cx="37.5" cy="37.5" rx="37.5" ry="37.5"></ellipse>
                        <path d="M36.8682815,46 L27.6334509,51.1117583 C26.1790361,51.9168209 25,51.2252718 25,49.578606 L25,45.9635449 L25,28.9942021 C25,27.3405499 26.3504982,26 27.9964905,26 L50.0035095,26 C51.6584255,26 53,27.343312 53,28.9942021 L53,43.0057979 C53,44.6594501 51.6495018,46 50.0035095,46 L36.8682815,46 Z M32.3333333,37.9708359 C33.4379028,37.9708359 34.3333333,37.0786697 34.3333333,35.9781269 C34.3333333,34.8775842 33.4379028,33.985418 32.3333333,33.985418 C31.2287638,33.985418 30.3333333,34.8775842 30.3333333,35.9781269 C30.3333333,37.0786697 31.2287638,37.9708359 32.3333333,37.9708359 Z M39,37.9708359 C40.1045695,37.9708359 41,37.0786697 41,35.9781269 C41,34.8775842 40.1045695,33.985418 39,33.985418 C37.8954305,33.985418 37,34.8775842 37,35.9781269 C37,37.0786697 37.8954305,37.9708359 39,37.9708359 Z M45.6666667,37.9708359 C46.7712362,37.9708359 47.6666667,37.0786697 47.6666667,35.9781269 C47.6666667,34.8775842 46.7712362,33.985418 45.6666667,33.985418 C44.5620972,33.985418 43.6666667,34.8775842 43.6666667,35.9781269 C43.6666667,37.0786697 44.5620972,37.9708359 45.6666667,37.9708359 Z" fill="#FFFFFF"></path>
                    </g>
                </g>
            </g>
        </g>
    </g>
</svg>

<svg width="75" height="75" viewBox="0 0 75 75" xmlns="http://www.w3.org/2000/svg">
    <title>
        Icon
    </title>
    <g fill="none" fill-rule="evenodd">
        <ellipse fill="#88CAA0" cx="37.5" cy="37.5" rx="37.5" ry="37.5"/>
        <path d="M36.868 46l-9.235 5.112c-1.454.805-2.633.113-2.633-1.533V28.994A3.001 3.001 0 0 1 27.996 26h22.008A2.997 2.997 0 0 1 53 28.994v14.012A3.001 3.001 0 0 1 50.004 46H36.868zm-4.535-8.03c1.105 0 2-.891 2-1.992 0-1.1-.895-1.993-2-1.993-1.104 0-2 .893-2 1.993s.896 1.993 2 1.993zm6.667 0c1.105 0 2-.891 2-1.992 0-1.1-.895-1.993-2-1.993s-2 .893-2 1.993.895 1.993 2 1.993zm6.667 0c1.104 0 2-.891 2-1.992 0-1.1-.896-1.993-2-1.993-1.105 0-2 .893-2 1.993s.895 1.993 2 1.993z" fill="#FFF"/>
    </g>
</svg>
